X: 22522
T: Lady Gethin
R: polka
M: 2/4
K: Dmajor
V:1
|:fd db|ge ea|fe/d/ c/d/e/B/|cA Aa/g/|
V:2
|:d2d2|g/f/e/d/ ee/A/|de/f/ eB|c2 Ae|
V:1
f/g/a/f/ db/a/|g/a/b/g/ ea|g/f/e/d/ c/d/e/c/|d2 d2:|
V:2
d/e/f f2|e/f/g gf/g/|ad cB/c/|dd/c/ d2:|
V:1
|:FA dF|GB BA/G/|FA g/f/e/d/|ce Af/g/|
V:2
|:FA dd|g/f/e/d/ eA/G/|FA G/F/E/D/|E2 Ae|
V:1
ag/f/ ba/g/|a/g/f/g/ ea|g/f/e/d/ c/d/e/c/|d2 d2:|
V:2
de/f/ ef/g/|a/g/f/g/ gf/g/|ad cB/c/|dd/c/ d2:|

